packages/merlin-www-assets/imports/brides/icons/figure-zoom.svg

<svg viewBox="0 0 16 16" xmlns="http://www.w3.org/2000/svg"><path d="m6.5 6.5v-2.5h1v2.5h2.5v1h-2.5v2.5h-1v-2.5h-2.5v-1zm5.0836288 5.7907356c-1.228061 1.0648567-2.83059017 1.7092644-4.5836288 1.7092644-3.86599325 0-7-3.1340068-7-7 0-3.86599325 3.13400675-7 7-7 3.8659932 0 7 3.13400675 7 7 0 1.75303863-.6444077 3.3555678-1.7092644 4.5836288l3.5628178 3.5628178-.7071068.7071068zm-4.5836288.7092644c3.3137085 0 6-2.6862915 6-6s-2.6862915-6-6-6-6 2.6862915-6 6 2.6862915 6 6 6z"/></svg>

<svg xmlns="http://www.w3.org/2000/svg" viewBox="0 0 16 16"><title>zoom</title>
  <path d="M6.5,6.5 L6.5,4 L7.5,4 L7.5,6.5 L10,6.5 L10,7.5 L7.5,7.5 L7.5,10 L6.5,10 L6.5,7.5 L4,7.5 L4,6.5 L6.5,6.5 Z M11.5836288,12.2907356 C10.3555678,13.3555923 8.75303863,14 7,14 C3.13400675,14 0,10.8659932 0,7 C0,3.13400675 3.13400675,0 7,0 C10.8659932,0 14,3.13400675 14,7 C14,8.75303863 13.3555923,10.3555678 12.2907356,11.5836288 L15.8535534,15.1464466 L15.1464466,15.8535534 L11.5836288,12.2907356 Z M7,13 C10.3137085,13 13,10.3137085 13,7 C13,3.6862915 10.3137085,1 7,1 C3.6862915,1 1,3.6862915 1,7 C1,10.3137085 3.6862915,13 7,13 Z"/>
</svg>
